X: 1
T: Home with the girls in the morning
M: C|
L: 1/8
F: http://library.yale.edu/HomeWithTheGirlsInTheMorning.abc	 2010-02-17 23:52:13 UT
K: Ddor
%P: AABAAB
%P:A
G2 \
| "Dm"A2d2d4 | "C"cdcB A2G2 | "Dm"A2d2 de d2 | "Am"c2 (A2A2) G2 \
| "Dm"A2d2d4 | "C"cdcB A2 A(B | cB)A(G "Am"FD) EF | "Dm"D6 :|]
%P:B
DE \
| "Dm"F2F2  "C"E2E2 | "Dm"DEDC A,2 DE  |    F2F2    "C"EDC2  | "Dm"D6 DE \
| "Dm"F2F2  "C"E2E2 | "Dm"DEDC A,2 A(B | "C"cB)A(G "Am"FD)EF | "Dm"D6 ||
DE \
| "Dm"F2F2  "C"E2E2 | "Dm"DEDC A,2 D(E |    FE)D(F  "C"ED)C2 | "D"^F6 DE \
| "Dm"=F2F2 "C"E2E2 | "Dm"DEDC A,2 A(B | "C"cB)A(G "Am"FD)EF | "Dm"D6 |]
